Facilitet_punkt_5800_Piktogrammer/Cirkel/SVG/HISTORISKE STEDER.svg

<svg xmlns="http://www.w3.org/2000/svg" width="5.5mm" height="5.5mm" viewBox="0 0 15.591 15.591">
  <rect width="15.591" height="15.591" rx="7.795" fill="#031E3A"/>
  <path d="M10.809,3.165a.4.4,0,0,0-.4-.4H5.184a.4.4,0,0,0-.4.4V4.792C4.781,6.3,6.62,7.024,6.62,7.8s-1.839,1.51-1.839,3.012v1.61a.405.405,0,0,0,.4.4h5.223a.4.4,0,0,0,.4-.4v-1.61c0-1.493-1.791-2.144-1.791-3.012s1.791-1.51,1.791-3.023ZM10,4.781c0,.49-.334.86-.843,1.369A2.436,2.436,0,0,0,8.213,7.8a2.451,2.451,0,0,0,.952,1.661c.507.506.839.874.839,1.351v1.006H9.782L8.376,10.47a.847.847,0,0,0-1.161,0L5.809,11.822H5.587V10.816c0-.536.458-.987.9-1.424A2.343,2.343,0,0,0,7.425,7.8a2.337,2.337,0,0,0-.937-1.586c-.544-.537-.9-.926-.9-1.426V3.777H10Z" fill="#fff"/>
</svg>

<?xml version="1.0" encoding="UTF-8"?>
<svg xmlns="http://www.w3.org/2000/svg" viewBox="0 0 15.59 15.59">
  <defs>
    <style>
      .cls-1 {
        fill: #071f39;
      }

      .cls-1, .cls-2 {
        stroke-width: 0px;
      }

      .cls-2 {
        fill: #fff;
      }
    </style>
  </defs>
  <g id="Cirkel">
    <rect class="cls-1" x="0" y="0" width="15.59" height="15.59" rx="7.8" ry="7.8"/>
  </g>
  <g id="ICONS">
    <path class="cls-2" d="M10.81,3.16c0-.22-.18-.4-.4-.4h-5.22c-.22,0-.4.18-.4.4v1.63c0,1.5,1.84,2.23,1.84,3.01s-1.84,1.51-1.84,3.01v1.61c0,.22.18.4.4.4h5.22c.22,0,.4-.18.4-.4v-1.61c0-1.49-1.79-2.14-1.79-3.01s1.79-1.51,1.79-3.02v-1.62ZM10,4.78c0,.49-.33.86-.84,1.37-.44.44-.95.95-.95,1.65s.51,1.21.95,1.66c.51.51.84.87.84,1.35v1.01h-.22l-1.41-1.35c-.32-.31-.84-.31-1.16,0l-1.41,1.35h-.22v-1.01c0-.54.46-.99.9-1.42.46-.45.94-.92.94-1.59s-.48-1.13-.94-1.59c-.54-.54-.9-.93-.9-1.43v-1.01h4.42v1Z"/>
  </g>
</svg>
